localPackages/DesignSystem/Sources/DesignSystem/Resources/Assets.xcassets/IconSet/ic-file-arrow-in.imageset/ic-file-arrow-in.svg

<svg width="24" height="24" viewBox="0 0 24 24" fill="none" xmlns="http://www.w3.org/2000/svg">
<g id="ic-file-arrow-in">
<path id="Icon" fill-rule="evenodd" clip-rule="evenodd" d="M6.75 3C5.50736 3 4.5 4.00736 4.5 5.25V18.75C4.5 19.9926 5.50736 21 6.75 21H13.5V22.5H6.75C4.67893 22.5 3 20.8211 3 18.75V5.25C3 3.17893 4.67893 1.5 6.75 1.5H13.7574C14.7519 1.5 15.7057 1.89509 16.409 2.59835L19.9017 6.09099C20.6049 6.79425 21 7.74808 21 8.74264V15H19.5V9H15.75C14.5074 9 13.5 7.99264 13.5 6.75V3H6.75ZM18.841 7.15165C18.9481 7.25877 19.0433 7.37557 19.1257 7.5H15.75C15.3358 7.5 15 7.16421 15 6.75V3.37426C15.1244 3.4567 15.2412 3.55189 15.3483 3.65901L18.841 7.15165ZM17.7803 13.7197C17.4874 13.4268 17.0125 13.4268 16.7196 13.7197L13.9318 16.5075C13.5217 16.9176 13.5217 17.5824 13.9318 17.9925L16.7196 20.7803C17.0125 21.0732 17.4874 21.0732 17.7803 20.7803C18.0732 20.4874 18.0732 20.0126 17.7803 19.7197L16.0606 18H22.5C22.9142 18 23.25 17.6642 23.25 17.25C23.25 16.8358 22.9142 16.5 22.5 16.5H16.0606L17.7803 14.7803C18.0732 14.4874 18.0732 14.0126 17.7803 13.7197Z" fill="#0F0F0F"/>
</g>
</svg>

<svg xmlns="http://www.w3.org/2000/svg" width="24" height="24" viewBox="0 0 24 24">
  <g class="ic-file-arrow-in">
    <path fill-rule="evenodd" d="M6.75 3A2.25 2.25 0 0 0 4.5 5.25v13.5A2.25 2.25 0 0 0 6.75 21h6.75v1.5H6.75A3.75 3.75 0 0 1 3 18.75V5.25A3.75 3.75 0 0 1 6.75 1.5h7.007a3.75 3.75 0 0 1 2.652 1.098l3.493 3.493A3.75 3.75 0 0 1 21 8.743V15h-1.5V9h-3.75a2.25 2.25 0 0 1-2.25-2.25V3H6.75Zm12.091 4.152c.107.107.202.224.285.348H15.75a.75.75 0 0 1-.75-.75V3.374c.124.083.241.178.348.285l3.493 3.493Zm-1.06 6.568a.75.75 0 0 0-1.061 0l-2.788 2.787a1.05 1.05 0 0 0 0 1.485l2.788 2.788a.75.75 0 0 0 1.06-1.06L16.06 18h6.44a.75.75 0 0 0 0-1.5h-6.44l1.72-1.72a.75.75 0 0 0 0-1.06Z" class="Icon"/>
  </g>
</svg>
